svgs/regular/laptop-file.svg

<svg xmlns="http://www.w3.org/2000/svg" viewBox="0 0 640 512"><!--! Font Awesome Pro 6.3.0 by @fontawesome - https://fontawesome.com License - https://fontawesome.com/license (Commercial License) Copyright 2023 Fonticons, Inc. --><path d="M48 368H240v48H48c-26.5 0-48-21.5-48-48V48C0 21.5 21.5 0 48 0H204.1c12.7 0 24.9 5.1 33.9 14.1l67.9 67.9c9 9 14.1 21.2 14.1 33.9V224H272V128H224c-17.7 0-32-14.3-32-32V48L48 48l0 320zm272-64V464H544V304H320zm-48-8c0-22.1 17.9-40 40-40H552c22.1 0 40 17.9 40 40V464h24c13.3 0 24 10.7 24 24s-10.7 24-24 24H248c-13.3 0-24-10.7-24-24s10.7-24 24-24h24V296z"/></svg>

<svg xmlns="http://www.w3.org/2000/svg" viewBox="0 0 640 512"><!--! Font Awesome Pro 6.2.0 by @fontawesome - https://fontawesome.com License - https://fontawesome.com/license (Commercial License) Copyright 2022 Fonticons, Inc. --><path d="M48 368H224V416H48C21.49 416 0 394.5 0 368V48C0 21.49 21.49 0 48 0H204.1C216.8 0 229.1 5.057 238.1 14.06L305.9 81.94C314.9 90.94 320 103.2 320 115.9V208H272V128H224C206.3 128 192 113.7 192 96V48H48V368zM312 256H552C574.1 256 592 273.9 592 296V464H616C629.3 464 640 474.7 640 488C640 501.3 629.3 512 616 512H248C234.7 512 224 501.3 224 488C224 474.7 234.7 464 248 464H272V296C272 273.9 289.9 256 312 256zM320 304V464H544V304H320z"/></svg>
